!!!!SEGMENT: pl-wnifc--13846--111_anonim--piesni-polskie-i-ruskie-ludu-galicyjskiego-111-lubylam-myloho.krn
!!!kernsource:
!!!cenid: 18xx:3333
!!!COM: Anonim
!!!COM-rismID: pe30004985
!!!CDT:
!!!CNT:
!!!GTL: Pieśni polskie i ruskie ludu galicyjskiego
!!!OTL: 111. Lubyłam myłoho
!!!OMV: 111
!!!PDT: 1833
!!!AGN:
!!!SMS-siglum: PL-Wnifc
!!!SMS-shelfmark: 13846
!!!SMS-shelfwork: 001-111 G
!!!NIFC-rismSourceID: 1001036701
!!!NIFC-rismChildID: 1001039529
!!!NIFC-islandoraID: nifc:210326
!!!URL-pdf-islandora: https://repozytorium.nifc.pl/islandora/object/nifc%3A210326/datastream/PDF/view
!!!URL-scan:
!!!IIIF:
!!!ONB-nifc:
!!!AIN: 1 piano 1 vox
!!!key: a
!!!OMD: Andante
**kern	**kern	**dynam	**kern	**text	**dynam
*part2	*part2	*part2	*part1	*part1	*
*staff3	*staff2	*	*staff1	*staff1	*
*I"FORTEPIAN.	*I"FORTEPIAN.	*	*I"GŁOS.	*	*
*Ipiano	*Ipiano	*	*Ivox	*	*
*ICklav	*ICklav	*	*ICvox	*	*
*IGacmp	*IGacmp	*	*IGsolo	*	*
*>[A,B,B]	*>[A,B,B]	*>[A,B,B]	*>[A,B,B]	*>[A,B,B]	*>[A,B,B]
*>A	*>A	*>A	*>A	*>A	*>A
*clefF4	*clefG2	*	*clefG2	*	*
*k[]	*k[]	*	*k[]	*	*
*a:	*a:	*	*a:	*	*
*M2/4	*M2/4	*	*M2/4	*	*
=1-	=1-	=1-	=1-	=1-	=1-
*^	*	*	*	*	*
!LO:TX:t=P:problem=mixed beam	!	!	!	!	!	!
!LO:N:vis=2	!	!	!	!LO:TX:a:t=E.150.	!	!
8AA/L	2AA\	8.ee\L	>	8.ee\	Lu-	.
8e\ 8c\ 8A\	.	.	.	.	.	.
.	.	16dd\Jk	]	16dd\	-by-	.
8e\ 8c\ 8A\	.	(16cc\LL	.	(16cc\LL	-łam	.
.	.	16b\J)	.	16b\JJ)	.	.
8e\J 8c\ 8A\	.	8a/^J	.	8a\	my-	.
*v	*v	*	*	*	*	*
=2	=2	=2	=2	=2	=2
8AA/	(8.ff\L	.	(8.ff\	-ło-	.
*clefG2	*	*	*	*	*
8f/L 8c/ 8A/	.	.	.	.	.
.	16ee\Jk)	.	16ee\)	.	.
8f/ 8c/ 8A/	(8..ee\L	.	(8..ee\L	-ho,	.
8f/J 8c/ 8A/	.	.	.	.	.
.	32dd#X\Jkk)	.	32dd#X\Jkk)	.	.
!!LO:LB:g=original
=3	=3	=3	=3	=3	=3
*clefF4	*	*	*	*	*
8e\L 8B\ 8G\	8.dd#X\L	.	8.dd#X\	mu-	.
8E\J	.	.	.	.	.
.	16ee\Jk	.	16ee\	-szu	.
8e\L 8A\	(16cc\LL	.	(16cc\LL	pe-	.
.	16b\	.	16b\	.	.
8d\J 8A\ 8F\	16cc\	.	16cc\JJ)	.	.
.	16ddn\JJ)	.	16ddn\	-re-	.
=4	=4	=4	=4	=4	=4
8B\L 8G\ [>8E\	(8.ee\L	.	(8.ee\L	-sta	<
8c\J 8A\ 8E\]	.	.	.	.	[ >
.	16dd#X\Jk	.	16dd#X\Jk)	.	]
8B\ 8G\ 8E\	8ee\)	.	8ee\	ty,	.
8r	8r	.	8r	.	.
!!LO:LB:g=original
=5	=5	=5	=5	=5	=5
!LO:TX:t=P:problem=mixed beam	!	!	!	!	!
8AA/L	8.ee^<\L	.	8.ee\	ma-	.
8e\ 8c\ 8A\	.	.	.	.	.
.	16ddn\Jk|	.	16ddn\	-już	.
8e\ 8c\ 8A\	(16cc\LL	.	(16cc\LL	za	.
.	16b\J)	.	16b\JJ	.	.
8e\J 8c\ 8A\	8a/J	.	8a/)	wir-	.
=6	=6	=6	=6	=6	=6
8AA/	8.ff\L	.	(8.ff\^L	-no	.
*clefG2	*	*	*	*	*
8f/L 8c/ 8A/	.	.	.	.	.
.	16ee\Jk	.	16ee\Jk)	.	.
8f#X/ 8c/ 8A/	8..ee\L	.	(8..ee\L	ho	.
8f#/J 8c/ 8A/	.	.	.	.	.
.	32dd#X\Jkk	.	32dd#X\Jkk)	.	.
!!LO:LB:g=original
=7	=7	=7	=7	=7	=7
!LO:TX:t=P:problem=mixed beam	!	!	!	!	!
8c/L	8.dd#X\L	.	8.dd#X\	ne-	.
8aa\J 8ff\	.	.	.	.	.
.	16ee\Jk	.	16ee\	-wdia-	.
!LO:TX:t=P:problem=mixed beam	!	!	!	!	!
8c/L	(16cc\LL	.	(16cc\LL	-czny-	.
.	16b\	.	16b\	.	.
8bb\J 8gg\	16a\	.	16a/JJ)	.	.
.	16g#X\JJ)	.	16g#X/	-ka-	.
=8	=8	=8	=8	=8	=8
!LO:TX:t=P:problem=mixed beam	!	!	!	!	!
8f/L	4a/	.	4a/	-ma-	.
8aa\ 8ff\	.	.	.	.	.
8aa\J 8ff\	8a/	.	8a/	-ty	.
8r	8r	.	8r	.	.
!!LO:PB:g=original
=9!|:	=9!|:	=9!|:	=9!|:	=9!|:	=9!|:
*>B	*>B	*>B	*>B	*>B	*>B
*clefF4	*	*	*	*	*
!LO:TX:t=P:problem=mixed beam	!	!	!	!	!
(>16EE/LL	(16e/LL	.	(16e/LL	pła-	.
16E\)	16g#X/JJ)	.	16g#X/JJ)	.	.
(>16EE/	8b\	.	8b\	-czuł	.
16E\JJ)	.	.	.	.	.
*rep	*	*	*	*	*
!LO:TX:t=P:problem=mixed beam	!	!	!	!	!
(>16EE/LL	(8b/L 8g#/|	.	8b\	o-	.
16E\)	.	.	.	.	.
(>16EE/	8b/J 8g#/|)	.	8b\	-czy,	.
16E\JJ)	.	.	.	.	.
*Xrep	*	*	*	*	*
=10	=10	=10	=10	=10	=10
16EE/|LL	8.ee\L 8.cc\	.	8.ee\	ser-	.
16E\	.	.	.	.	.
16GG#X/|	.	.	.	.	.
16E\|JJ	16dd\Jk 16b\	.	16dd\	-ce	.
!	!	!LO:HP:b=2	!	!	!
(16AA/|LL	8cc\L 8a\	<	8cc\	tu-	.
16E/	.	.	.	.	.
!	!	!LO:HP:b=2	!	!	!
.	.	[ >	.	.	.
16Fn/	8b\J 8g#X\	.	8b\	-żył,	.
16E/JJ)	.	]	.	.	.
!!LO:LB:g=original
=11	=11	=11	=11	=11	=11
!LO:TX:t=P:problem=mixed beam	!	!	!	!	!
8A\L	8cc\ 8a\	.	8cc\	jak	.
8AA/	(16cc\LL 16a\	.	(16cc\LL	sta-	.
.	16ee\JJ 16cc\)	.	16ee\JJ)	.	.
!	!	!LO:HP:b=2	!	!	!
8D/	(8.ee\L 8.cc\	<	(8.ee\L	-ne	.
8D#X/J	.	[	.	.	.
.	32dd\LL 32b^<\	.	32dd\Jkk	.	.
.	32cc\JJJ 32a\)	.	32cc\|)	swy-	.
=12	=12	=12	=12	=12	=12
!LO:TX:t=P:problem=mixed beam	!	!	!	!	!
8E\L	(8.cc\L 8.a\	.	(8.cc\L	-ta-	.
8D#X\	.	.	.	.	.
.	16b\Jk 16g#\)	.	16b\Jk)	.	.
8E^<\	8b\ 8g#\	.	8b\	-ty,	.
8EE/J	8r	.	8r	.	.
!!LO:LB:g=original
=13	=13	=13	=13	=13	=13
!LO:TX:t=P:problem=mixed beam	!	!	!	!	!
8AA/L	8.ee\^<L	.	8.ee\	ko-	.
8e\ 8c\ 8A\	.	.	.	.	.
.	16ddn\Jk	.	16dd\	-tro-	.
8e\ 8c\ 8A\	(16cc\LL	.	(16cc\LL	-hom	.
.	16b\J)	.	16b\JJ)	.	.
8e\J 8c\ 8A\	8a/^J	.	8a/	wir-	.
=14	=14	=14	=14	=14	=14
8AA/	8ff\^<L	.	8ff\	-ne	.
*clefG2	*	*	*	*	*
8fn/L 8c/ 8A/	(16ff\^<L	.	(16ff\LL	lu-	.
.	16ee\JJ)	.	16ee\JJ)	.	.
8f#X/ 8c/ 8A/	8ee\L	.	8ee\	by-	.
8f#/J 8c/ 8A/	16ee\^<L	.	(16ee\LL	-ła	.
.	16dd#X\JJ|	.	16dd#X\JJ)	.	.
*clefF4	*	*	*	*	*
!!LO:LB:g=original
=15	=15	=15	=15	=15	=15
8c\L 8A\ 8E\	8.dd\^<	.	8.dd\	tiażko	.
8e\J 8c\ 8A\	.	.	.	.	.
.	16ee\	.	16ee\	.	.
8E\L	(16dd\LL	.	(16dd\LL	pe-	.
.	16b\	.	16b\	.	.
8d\J 8B\	16a\)	.	16a/JJ)	.	.
.	16g#X\|JJ	.	16g#X/	-re-	.
=16	=16	=16	=16	=16	=16
!LO:TX:t=P:problem=mixed beam	!	!	!	!	!
8AA/L	4a/	.	4a/	-ta-	.
8c\J 8A\ 8E\	.	.	.	.	.
8AA/	8a/	.	8a/	-ty.	.
8r	8r	.	8r	.	.
==	==	==	==	==	==
*-	*-	*-	*-	*-	*-
!!!system-decoration: s1{(s2,s3)}
!!!RDF**kern: > = above
!!!RDF**kern: < = below
!!!RDF**kern: | = vertical stroke
!!!ENC: Marta Lawrence
!!!END: 2021-11-11
!!!YEC: Copyright 2022 Narodowy Instytut Fryderyka Chopina (https://polishscores.org)
!!!YEM: License CC-BY-4.0 (https://creativecommons.org/licenses/by/4.0)
